X:1
T:Alice
T:Alice
T:Telemann
C:Telemann
L:1/8
M:3/4
K:A
V:1 treble 
V:1
 AB | c3 d e2 | d3 c B2 | c4 A2 | A4 AB | c3 d e2 | d3 c B2 | c4 A2 | A4 f2 | e6 | e2 fg af | e6 | %12
 e2 fg aA | d3 e d2 | d4 d2 | b4 g2 | e4 d2 | c3 B d2 | c3 d B2 | A6 | A4 || %21

